X:1
T:Title
%%score { ( 1 3 ) | ( 2 4 ) }
L:1/8
M:4/4
K:Eb
V:1 treble nm="Grand Piano"
V:3 treble 
V:2 bass 
V:4 bass 
V:1
 z4 z2[Q:1/4=100] EF | GGGG G>F E>F | G6 z2 | [GB][GB] [GB]>[Ac] [GB]>[B,FA] [B,EG]>[B,FA] | %4
[M:3/4] B6 |[M:1/4] [GB][GB] |[M:4/4] [Ge][Ge][Ae][DAc] [EGB]2 [B,EG]>[B,FA] | %7
 [EGB]>[EAc] [EGB]>[B,FA] [B,EG]2 [CE][=A,EF] | [B,EG]2 [EGB][EGB] [B,EG]2 [A,DF]2 |[M:3/4] E6 | %10
[M:1/4] [GB][GB] |[M:4/4] [Ge][Ge][Ge][Ge] [Ge][EGe][EAc][EAe] | B2- [DFB-][DFB-] [GB]2 EG | %13
 BBBc G2 FE |[M:3/4] F4 z2 |[M:1/4] [GB][GB] |[M:4/4] [Ge][Ge][Ae][DAc] [EGB]2 [B,EG]>[B,FA] | %17
 [EGB]>[EAc] [EGB]>[B,FA] [B,EG]2 [CE][=A,EF] | [B,EG]2 [EGB][EGB] [B,EG]2 [A,DF]2 | %19
[M:7/4] E6 z2 z2 z4 |] %20
V:2
 z4 z2 [E,G,][E,A,D] | [E,B,E][E,B,E][E,B,E][E,B,E] [E,B,E]>[E,A,D] [E,G,]>[E,A,D] | %2
 [E,B,E]2 [C,C][C,C] [E,B,]2 [E,B,E]>[E,B,] | [E,E][E,E] [E,E]>[E,E] [E,E]>E, E,>E, | %4
[M:3/4] E,2 B,,B,, E,2 |[M:1/4] [E,E][E,E] |[M:4/4] [E,B,][E,B,][A,C]A, E,2 E,>E, | %7
 E,>E, E,>E, E,2 C,C, | B,,2 B,,B,, B,,2 B,,2 |[M:3/4] z G, A,A, G,2 |[M:1/4] [E,E][E,E] | %11
[M:4/4] [E,B,][E,B,][E,B,][E,B,] [E,B,]E,A,,C, | E,2 B,,B,, [E,E]2 [E,G,][E,B,E] | %13
 [E,G,E][E,G,E][E,G,E][E,A,E] [E,B,E]2 [D,B,][C,=A,C] |[M:3/4] [B,,B,]2 [B,,B,]B,, B,,2 | %15
[M:1/4] [E,E][E,E] |[M:4/4] [E,B,][E,B,][A,C]A, E,2 E,>E, | E,>E, E,>E, E,2 C,C, | %18
 B,,2 B,,B,, B,,2 B,,2 |[M:7/4] z G,A,A, G,2 z2 z2 z4 |] %20
V:3
 x8 | x8 | z2 EE E2 G>[FA] | x8 |[M:3/4] [EG]2 [DF][DF] [EG]2 |[M:1/4] x2 |[M:4/4] x8 | x8 | x8 | %9
[M:3/4] G,B, CC B,2 |[M:1/4] x2 |[M:4/4] x8 | [EG]2 z2 z4 | x8 |[M:3/4] D2 D[CE] [DFB]2 | %15
[M:1/4] x2 |[M:4/4] x8 | x8 | x8 |[M:7/4] G,B,CC B,2 z2 z2 z4 |] %20
V:4
 x8 | x8 | x8 | x8 |[M:3/4] x6 |[M:1/4] x2 |[M:4/4] x8 | x8 | x8 |[M:3/4] E,6 |[M:1/4] x2 | %11
[M:4/4] x8 | x8 | x8 |[M:3/4] x6 |[M:1/4] x2 |[M:4/4] x8 | x8 | x8 |[M:7/4] E,6 z2 z2 z4 |] %20

